Papirus/64x64/apps/terraria.svg

<?xml version="1.0" encoding="UTF-8" standalone="no"?>
<svg xmlns="http://www.w3.org/2000/svg" height="64" width="64" version="1">
 <path style="opacity:0.2" d="m 24.375955,40.118149 a 2.6665809,2.6665809 0 0 1 -1.043993,0.213999 2.6665809,2.6665809 0 0 1 -0.066,0.573996 l 4.733966,5.175963 0,-1.999986 -3.623974,-3.963972 z m 16.635881,4.569968 a 2.6665809,2.8571796 0 0 1 -0.281998,0.022 2.6665809,2.8571796 0 0 0 0.101999,0.403998 l -4.831965,4.667966 0,1.999986 4.831965,-4.667967 a 2.6665809,2.8571796 0 0 1 -0.163999,-0.969993 2.6665809,2.8571796 0 0 1 0.359998,-1.43399 2.6665809,2.8571796 0 0 1 -0.016,-0.022 z M 24.155956,59.000014 C 24.049957,59.63401 23.999957,60.304005 23.999957,61 l 15.999886,0 c 0,-0.695995 -0.05,-1.36599 -0.155999,-1.999986 l -15.687888,0 z"/>
 <path style="fill:#a57959" d="m 31.261905,29.218234 c -0.893993,0.509997 -1.911986,0.779995 -2.945978,0.781995 -0.108,0 -0.209999,-0.022 -0.315998,-0.028 l 0,11.14992 -2.545982,-2.839979 a 2.6665809,2.6665809 0 0 1 -2.121985,1.049992 2.6665809,2.6665809 0 0 1 -0.066,0.573996 l 4.733966,5.175963 0,8.457939 c -3.287977,1.053993 -3.999972,3.547975 -3.999972,6.459954 l 15.999886,0 c 0,-2.911979 -0.711995,-5.405961 -3.999971,-6.459954 l 0,-2.75798 4.831965,-4.667966 a 2.6665809,2.8571796 0 0 1 -0.163999,-0.969993 2.6665809,2.8571796 0 0 1 0.359998,-1.43399 2.6665809,2.8571796 0 0 1 -0.016,-0.022 2.6665809,2.8571796 0 0 1 -0.343998,0.026 2.6665809,2.8571796 0 0 1 -1.125992,-0.267998 l -3.541974,3.373976 0,-17.119878 c -0.573996,0.179999 -1.167992,0.299998 -1.789988,0.299998 -1.035992,-0.002 -2.051985,-0.271998 -2.947979,-0.781995 z"/>
 <path style="opacity:0.2" d="m 19.574189,11.25427 c -0.0548,0.316597 -0.101599,0.636595 -0.101599,0.968593 0.0012,0.827794 0.202398,1.632188 0.547396,2.374983 0.267998,-0.232199 0.529996,-0.472197 0.843994,-0.656196 -0.667995,-0.773794 -1.105592,-1.702987 -1.289791,-2.68738 z m 26.331812,5.726359 c -0.187999,1.057592 -0.667995,2.049385 -1.40599,2.859379 0.016,0.164199 0.026,0.327398 0.028,0.492197 -0.004,2.919979 -2.229984,5.379961 -5.187963,5.729959 -1.043993,1.813987 -3.003979,2.935979 -5.129964,2.937979 -1.035992,-0.002 -2.051985,-0.271998 -2.947979,-0.781995 -0.893993,0.509997 -1.911986,0.779995 -2.945978,0.781995 -2.743981,-0.004 -5.123964,-1.861987 -5.737959,-4.483968 -2.329984,-0.523996 -4.065971,-2.359983 -4.480368,-4.601967 -0.0564,0.320397 -0.0972,0.645395 -0.0976,0.976593 0.0032,2.691381 1.901187,5.023364 4.577968,5.62536 0.613995,2.621981 2.993978,4.479968 5.737959,4.483967 1.033992,-0.002 2.051985,-0.271998 2.945978,-0.781994 0.895994,0.509996 1.911987,0.779995 2.947979,0.781994 2.125985,-0.002 4.085971,-1.123991 5.129964,-2.937978 2.957979,-0.349998 5.183963,-2.80998 5.187963,-5.72996 -0.002,-0.163998 -0.012,-0.327997 -0.028,-0.491996 C 45.464004,20.783602 45.998,19.417011 46,18.000221 46,17.652624 45.968,17.313426 45.906,16.980629 Z M 25.800145,36.664088 a 2.6665809,2.6665809 0 0 1 -2.467983,1.667988 2.6665809,2.6665809 0 0 1 -2.663981,2.667981 2.6665809,2.6665809 0 0 1 -2.468782,-1.659988 2.6665809,2.6665809 0 0 0 -0.199199,0.991993 2.6665809,2.6665809 0 0 0 2.667981,2.667981 2.6665809,2.6665809 0 0 0 2.663981,-2.667981 2.6665809,2.6665809 0 0 0 2.667981,-2.663981 2.6665809,2.6665809 0 0 0 -0.199998,-1.003993 z m -7.604546,0.004 a 2.6665809,2.6665809 0 0 0 -0.195399,0.999993 2.6665809,2.6665809 0 0 0 0.0234,0.315998 2.6665809,2.6665809 0 0 1 0.336198,-0.983993 2.6665809,2.6665809 0 0 1 -0.163999,-0.331998 z m 19.976457,4.18797 a 2.6665809,2.8571796 0 0 0 -0.171999,0.999993 2.6665809,2.8571796 0 0 0 2.667981,2.857979 2.6665809,2.8571796 0 0 0 0.054,-0.004 2.6665809,2.8571796 0 0 1 -0.054,-0.565995 2.6665809,2.8571796 0 0 1 0.359998,-1.43399 2.6665809,2.8571796 0 0 1 -0.016,-0.022 2.6665809,2.8571796 0 0 1 -0.343998,0.026 2.6665809,2.8571796 0 0 1 -2.495982,-1.857987 z m 7.655945,1.42999 A 2.6665809,2.8571796 0 0 1 45.640003,42.714045 2.6665809,2.8571796 0 0 1 45.968,43.722038 2.6665809,2.8571796 0 0 0 46,43.286041 2.6665809,2.8571796 0 0 0 45.828001,42.286048 Z m -4.987964,2.857979 A 2.6665809,2.8571796 0 0 0 40.668038,46.14402 2.6665809,2.8571796 0 0 0 43.332019,49 2.6665809,2.8571796 0 0 0 46,46.14402 2.6665809,2.8571796 0 0 0 45.828001,45.144027 2.6665809,2.8571796 0 0 1 43.332019,47.000014 2.6665809,2.8571796 0 0 1 40.840037,45.144027 Z"/>
 <path style="fill:#1c8d43" d="m 31.261905,4.0004147 c -1.563988,0.0018 -3.063978,0.6135956 -4.16797,1.6991879 -0.559996,-0.1681988 -1.141992,-0.2537982 -1.725987,-0.2537982 -3.255977,0 -5.895358,2.5861815 -5.895358,5.7771586 0.002,1.36139 0.494796,2.678581 1.39139,3.718773 -1.775188,1.042593 -2.86138,2.92138 -2.86398,4.949165 0.0032,2.691381 1.901187,5.023364 4.577968,5.62536 0.613995,2.621981 2.993978,4.479968 5.737959,4.483968 1.033992,-0.002 2.051985,-0.271998 2.945978,-0.781995 0.895994,0.509997 1.911987,0.779995 2.947979,0.781995 2.125985,-0.002 4.085971,-1.123992 5.129964,-2.937979 2.957979,-0.349998 5.183963,-2.80998 5.187963,-5.729959 -0.002,-0.163999 -0.012,-0.327998 -0.028,-0.491997 0.963993,-1.056592 1.497989,-2.423182 1.499989,-3.839972 -0.004,-2.691781 -1.901986,-5.024364 -4.577967,-5.62496 C 40.865837,9.0037789 38.851851,7.2273916 36.385869,6.9339937 35.341876,5.1234067 33.38389,4.0032147 31.261905,4.0004147 Z M 20.667981,34.0002 A 2.6665809,2.6665809 0 0 0 18,36.668181 2.6665809,2.6665809 0 0 0 18.359398,38.000172 2.6665809,2.6665809 0 0 0 18,39.332162 a 2.6665809,2.6665809 0 0 0 2.667981,2.667981 2.6665809,2.6665809 0 0 0 2.663981,-2.667981 2.6665809,2.6665809 0 0 0 2.667981,-2.663981 2.6665809,2.6665809 0 0 0 -2.667981,-2.667981 2.6665809,2.6665809 0 0 0 -1.33199,0.359998 2.6665809,2.6665809 0 0 0 -1.331991,-0.359998 z m 19.999857,3.999972 a 2.6665809,2.8571796 0 0 0 -2.667981,2.855979 2.6665809,2.8571796 0 0 0 2.667981,2.85798 2.6665809,2.8571796 0 0 0 0.343998,-0.026 2.6665809,2.8571796 0 0 0 0.016,0.022 2.6665809,2.8571796 0 0 0 -0.359998,1.43399 2.6665809,2.8571796 0 0 0 2.663981,2.855979 2.6665809,2.8571796 0 0 0 2.667981,-2.855979 2.6665809,2.8571796 0 0 0 -0.359997,-1.42999 2.6665809,2.8571796 0 0 0 0.359997,-1.42799 2.6665809,2.8571796 0 0 0 -2.667981,-2.85598 2.6665809,2.8571796 0 0 0 -0.343997,0.028 2.6665809,2.8571796 0 0 0 -2.319984,-1.457989 z"/>
 <path style="opacity:0.2;fill:#ffffff" d="M 31.261719 29.21875 C 30.367726 29.728747 29.350398 29.998 28.316406 30 C 28.208406 30 28.105999 29.978656 28 29.972656 L 28 30.972656 C 28.105999 30.978656 28.208406 31 28.316406 31 C 29.350398 30.998 30.367726 30.728747 31.261719 30.21875 C 32.157713 30.728747 33.172992 30.998 34.208984 31 C 34.83098 31 35.426004 30.881171 36 30.701172 L 36 29.701172 C 35.426004 29.881171 34.83098 30 34.208984 30 C 33.172992 29.998 32.157713 29.728747 31.261719 29.21875 z M 25.453125 38.28125 A 2.6665809 2.6665809 0 0 1 23.332031 39.332031 A 2.6665809 2.6665809 0 0 1 23.265625 39.90625 L 23.638672 40.3125 A 2.6665809 2.6665809 0 0 0 25.453125 39.28125 L 28 42.123047 L 28 41.123047 L 25.453125 38.28125 z M 39.541016 43.445312 L 36 46.820312 L 36 47.820312 L 39.541016 44.445312 A 2.6665809 2.8571796 0 0 0 40.667969 44.714844 A 2.6665809 2.8571796 0 0 0 40.701172 44.714844 A 2.6665809 2.8571796 0 0 1 41.027344 43.710938 A 2.6665809 2.8571796 0 0 1 41.011719 43.6875 A 2.6665809 2.8571796 0 0 1 40.667969 43.714844 A 2.6665809 2.8571796 0 0 1 39.541016 43.445312 z M 40.714844 45.615234 A 2.6665809 2.8571796 0 0 0 40.701172 45.712891 A 2.6665809 2.8571796 0 0 0 40.730469 45.710938 A 2.6665809 2.8571796 0 0 1 40.714844 45.615234 z M 28 53.541016 C 24.712023 54.595009 24 57.088021 24 60 L 24.035156 60 C 24.204497 57.526657 25.096027 55.471912 28 54.541016 L 28 53.541016 z M 36 53.541016 L 36 54.541016 C 38.903972 55.471912 39.795503 57.526657 39.964844 60 L 40 60 C 40 57.088021 39.287976 54.595009 36 53.541016 z"/>
 <path style="opacity:0.2;fill:#ffffff" d="M 31.261719 4 C 29.697731 4.0018 28.197742 4.6136264 27.09375 5.6992188 C 26.533754 5.53102 25.951182 5.4453125 25.367188 5.4453125 C 22.11121 5.4453125 19.472656 8.0316792 19.472656 11.222656 C 19.472946 11.391074 19.483701 11.558432 19.5 11.724609 C 19.758564 8.7677464 22.283056 6.4453125 25.367188 6.4453125 C 25.951182 6.4453125 26.533754 6.53102 27.09375 6.6992188 C 28.197742 5.6136265 29.697731 5.0018 31.261719 5 C 33.383704 5.0028 35.342726 6.1230068 36.386719 7.9335938 C 38.852701 8.2269917 40.865878 10.003417 41.421875 12.375 C 43.922338 12.936203 45.721715 15.01479 45.953125 17.480469 C 45.968773 17.320057 46 17.161938 46 17 C 45.996 14.308219 44.097856 11.975596 41.421875 11.375 C 40.865878 9.0034169 38.852701 7.2269917 36.386719 6.9335938 C 35.342726 5.1230068 33.383704 4.0028 31.261719 4 z M 20.019531 15.597656 C 18.76794 16.681848 18.0022 18.220837 18 19.890625 C 18.000147 20.019289 18.025946 20.141294 18.035156 20.267578 C 18.201249 18.841072 18.925372 17.545473 20.019531 16.597656 C 20.12551 16.826226 20.243445 17.049898 20.375 17.265625 C 20.531826 17.150934 20.693195 17.041291 20.863281 16.941406 C 20.511283 16.533809 20.241529 16.076452 20.019531 15.597656 z M 20.667969 34 A 2.6665809 2.6665809 0 0 0 18 36.667969 A 2.6665809 2.6665809 0 0 0 18.048828 37.169922 A 2.6665809 2.6665809 0 0 1 20.667969 35 A 2.6665809 2.6665809 0 0 1 22 35.359375 A 2.6665809 2.6665809 0 0 1 23.332031 35 A 2.6665809 2.6665809 0 0 1 25.949219 37.158203 A 2.6665809 2.6665809 0 0 0 26 36.667969 A 2.6665809 2.6665809 0 0 0 23.332031 34 A 2.6665809 2.6665809 0 0 0 22 34.359375 A 2.6665809 2.6665809 0 0 0 20.667969 34 z M 40.667969 38 A 2.6665809 2.8571796 0 0 0 38 40.855469 A 2.6665809 2.8571796 0 0 0 38.042969 41.347656 A 2.6665809 2.8571796 0 0 1 40.667969 39 A 2.6665809 2.8571796 0 0 1 42.988281 40.458984 A 2.6665809 2.8571796 0 0 1 43.332031 40.429688 A 2.6665809 2.8571796 0 0 1 45.955078 42.78125 A 2.6665809 2.8571796 0 0 0 46 42.287109 A 2.6665809 2.8571796 0 0 0 43.332031 39.429688 A 2.6665809 2.8571796 0 0 0 42.988281 39.458984 A 2.6665809 2.8571796 0 0 0 40.667969 38 z M 18.023438 38.984375 A 2.6665809 2.6665809 0 0 0 18 39.332031 A 2.6665809 2.6665809 0 0 0 18.199219 40.339844 A 2.6665809 2.6665809 0 0 1 18.359375 40 A 2.6665809 2.6665809 0 0 1 18.023438 38.984375 z M 45.96875 44.722656 A 2.6665809 2.8571796 0 0 1 45.640625 45.714844 A 2.6665809 2.8571796 0 0 1 45.828125 46.144531 A 2.6665809 2.8571796 0 0 0 46 45.144531 A 2.6665809 2.8571796 0 0 0 45.96875 44.722656 z M 41.011719 45.6875 A 2.6665809 2.8571796 0 0 1 40.722656 45.710938 A 2.6665809 2.8571796 0 0 0 40.839844 46.144531 A 2.6665809 2.8571796 0 0 1 41.027344 45.710938 A 2.6665809 2.8571796 0 0 1 41.011719 45.6875 z"/>
</svg>

<?xml version="1.0" encoding="UTF-8" standalone="no"?>
<svg xmlns="http://www.w3.org/2000/svg" height="64" width="64" version="1">
 <path style="fill:#a57959" d="m31.262 29.218c-.89399 0.51-1.912 0.78-2.946 0.782-.108 0-0.21-.022-0.316-.028v11.15l-2.546-2.84a2.6666 2.6666 0 0 1 -2.122 1.05 2.6666 2.6666 0 0 1 -.066 0.574l4.734 5.176v8.4579c-3.288 1.054-4 3.548-4 6.46h16c0-2.912-0.712-5.406-4-6.46v-2.758l4.832-4.668a2.6666 2.8572 0 0 1 -0.164 -.96999 2.6666 2.8572 0 0 1 0.36 -1.434 2.6666 2.8572 0 0 1 -.016 -.022 2.6666 2.8572 0 0 1 -0.344 .026 2.6666 2.8572 0 0 1 -1.126 -0.268l-3.542 3.374v-17.12c-0.574 0.18-1.168 0.3-1.79 0.3-1.036-.002-2.052-0.272-2.948-0.782z"/>
 <path style="fill:#1c8d43" d="m31.262 4.0004c-1.564.0018-3.064.61360-4.168 1.6992-0.56-.16820-1.142-.25380-1.726-.25380-3.256 0-5.8954 2.5862-5.8954 5.7772.002 1.3614.49480 2.6786 1.3914 3.7188-1.7752 1.0426-2.8614 2.9214-2.864 4.9492.0032 2.6914 1.9012 5.0234 4.578 5.6254 0.614 2.622 2.994 4.48 5.738 4.484 1.034-.002 2.052-0.272 2.946-0.782.89599 0.51 1.912 0.78 2.948 0.782 2.126-.002 4.086-1.124 5.13-2.938 2.958-0.35 5.184-2.81 5.188-5.73-.002-0.164-.012-0.328-.028-0.492.96399-1.0566 1.498-2.4232 1.5-3.84-.004-2.6918-1.902-5.0244-4.578-5.625-.556-2.3702-2.57-4.1466-5.036-4.44-1.044-1.8106-3.002-2.9308-5.124-2.9336zm-10.594 30a2.6666 2.6666 0 0 0 -2.668 2.668 2.6666 2.6666 0 0 0 .359 1.332 2.6666 2.6666 0 0 0 -.359 1.332 2.6666 2.6666 0 0 0 2.668 2.668 2.6666 2.6666 0 0 0 2.664 -2.668 2.6666 2.6666 0 0 0 2.668 -2.664 2.6666 2.6666 0 0 0 -2.668 -2.668 2.6666 2.6666 0 0 0 -1.332 0.36 2.6666 2.6666 0 0 0 -1.332 -0.36zm20 4a2.6666 2.8572 0 0 0 -2.668 2.856 2.6666 2.8572 0 0 0 2.668 2.858 2.6666 2.8572 0 0 0 0.344 -.026 2.6666 2.8572 0 0 0 .016 .022 2.6666 2.8572 0 0 0 -0.36 1.434 2.6666 2.8572 0 0 0 2.664 2.856 2.6666 2.8572 0 0 0 2.668 -2.856 2.6666 2.8572 0 0 0 -0.36 -1.43 2.6666 2.8572 0 0 0 0.36 -1.428 2.6666 2.8572 0 0 0 -2.668 -2.856 2.6666 2.8572 0 0 0 -0.344 .028 2.6666 2.8572 0 0 0 -2.32 -1.458z"/>
 <path style="opacity:.2;fill:#ffffff" d="m31.262 4c-1.564.0018-3.064.6136-4.168 1.6992-.560-.1682-1.143-.2539-1.727-.2539-3.256 0-5.894 2.5864-5.894 5.7777 0 .129.026.256.035.384.314-2.9006 2.816-5.1617 5.859-5.1617.584 0 1.167.0857 1.727.2539 1.104-1.0856 2.604-1.6974 4.168-1.6992 2.122.0028 4.081 1.123 5.125 2.9336 2.466.2934 4.479 2.0694 5.035 4.4414 2.501.561 4.303 2.641 4.533 5.107.014-.161.045-.319.045-.482-.004-2.692-1.902-5.024-4.578-5.625-.556-2.3716-2.569-4.148-5.035-4.4414-1.044-1.8106-3.003-2.9308-5.125-2.9336zm-10.881 11.27c-1.484 1.081-2.379 2.786-2.381 4.621 0 .146.028.287.039.431.185-1.805 1.217-3.437 2.824-4.381-.182-.211-.334-.440-.482-.671zm24.123 6.564c-.002.002-.002.004-.004.006.001.011.001.022.002.033.001-.013.001-.026.002-.039zm-23.836 12.166a2.6666 2.6666 0 0 0 -2.668 2.668 2.6666 2.6666 0 0 0 .049 .498 2.6666 2.6666 0 0 1 2.619 -2.166 2.6666 2.6666 0 0 1 1.332 .359 2.6666 2.6666 0 0 1 1.332 -.359 2.6666 2.6666 0 0 1 2.619 2.164 2.6666 2.6666 0 0 0 .049 -.496 2.6666 2.6666 0 0 0 -2.668 -2.668 2.6666 2.6666 0 0 0 -1.332 .359 2.6666 2.6666 0 0 0 -1.332 -.359zm20 4a2.6666 2.8572 0 0 0 -2.668 2.855 2.6666 2.8572 0 0 0 .043 .499 2.6666 2.8572 0 0 1 2.625 -2.354 2.6666 2.8572 0 0 1 2.32 1.459 2.6666 2.8572 0 0 1 .344 -.029 2.6666 2.8572 0 0 1 2.623 2.347 2.6666 2.8572 0 0 0 .045 -.490 2.6666 2.8572 0 0 0 -2.668 -2.857 2.6666 2.8572 0 0 0 -.344 .029 2.6666 2.8572 0 0 0 -2.32 -1.459zm-22.531.498a2.6666 2.6666 0 0 0 -.137 .834 2.6666 2.6666 0 0 0 .049 .508 2.6666 2.6666 0 0 1 .310 -.840 2.6666 2.6666 0 0 1 -.222 -.502zm27.715 5.721a2.6666 2.8572 0 0 1 -.211 .496 2.6666 2.8572 0 0 1 .316 .937 2.6666 2.8572 0 0 0 .043 -.507 2.6666 2.8572 0 0 0 -.148 -.926zm-4.84.469a2.6666 2.8572 0 0 1 -.311 .025 2.6666 2.8572 0 0 0 -.033 .432 2.6666 2.8572 0 0 0 .045 .503 2.6666 2.8572 0 0 1 .314 -.937 2.6666 2.8572 0 0 1 -.015 -.023z"/>
 <path style="opacity:.2" d="m19.508 11.607c-.02192.20255-.03516.40698-.03516.61523.0016 1.0851.32704 2.1358.90820 3.0469.15638-.11401.31317-.22872.48242-.32812-.81118-.94110-1.2698-2.1118-1.3555-3.334zm26.447 5.875c-.10884 1.2406-.60192 2.4223-1.4551 3.3574.016 0.164.02534.32819.02734.49219-.000232.16932-.0086.33605-.02344.50195.961-1.056 1.494-2.42 1.496-3.834-.000261-.17584-.02881-.34519-.04492-.51758zm-27.916 2.8398c-.01926.18836-.03882.37676-.03906.56836.0032 2.6914 1.9013 5.023 4.5781 5.625 0.614 2.622 2.9943 4.4804 5.7383 4.4844 1.034-.002 2.0513-.27125 2.9453-.78125.89599 0.51 1.9113.77925 2.9473.78125 2.126-.002 4.0869-1.1235 5.1309-2.9375 2.958-0.35 5.1835-2.8105 5.1875-5.7305-.0019-.15293-.01123-.30605-.02539-.45898-.25868 2.6775-2.389 4.8613-5.1621 5.1895-1.044 1.814-3.005 2.936-5.131 2.938-1.036-.002-2.051-.271-2.947-.781-.894.510-1.912.779-2.946.781-2.744-.004-5.124-1.862-5.738-4.484-2.5309-.56919-4.3439-2.6895-4.5391-5.1934zm7.9121 16.842a2.6666 2.6666 0 0 1 -2.619 2.168 2.6666 2.6666 0 0 1 -2.664 2.668 2.6666 2.6666 0 0 1 -2.619 -2.16 2.6666 2.6666 0 0 0 -.049 .492 2.6666 2.6666 0 0 0 2.668 2.668 2.6666 2.6666 0 0 0 2.664 -2.668 2.6666 2.6666 0 0 0 2.668 -2.664 2.6666 2.6666 0 0 0 -.049 -.504zm-7.9023.002a2.6666 2.6666 0 0 0 -.049 .502 2.6666 2.6666 0 0 0 .137 .830 2.6666 2.6666 0 0 1 .222 -.498 2.6666 2.6666 0 0 1 -.310 -.834zm19.994 4.1875a2.6666 2.8572 0 0 0 -.043 .501 2.6666 2.8572 0 0 0 2.668 2.8594 2.6666 2.8572 0 0 0 .0332 -.002 2.6666 2.8572 0 0 1 .32617 -1.002 2.6666 2.8572 0 0 1 -.01563 -.02344 2.6666 2.8572 0 0 1 -.34375 .02734 2.6666 2.8572 0 0 1 -2.625 -2.3613zm7.9121 1.4238a2.6666 2.8572 0 0 1 -.31445 .9375 2.6666 2.8572 0 0 1 .21094 .50391 2.6666 2.8572 0 0 0 .149 -.932 2.6666 2.8572 0 0 0 -.045 -.510zm-5.2422 2.8711a2.6666 2.8572 0 0 0 -.045 .496 2.6666 2.8572 0 0 0 2.664 2.855 2.6666 2.8572 0 0 0 2.668 -2.855 2.6666 2.8572 0 0 0 -.043 -.493 2.6666 2.8572 0 0 1 -2.625 2.348 2.6666 2.8572 0 0 1 -2.619 -2.352z"/>
 <path style="opacity:.1;fill:#ffffff" d="m31.262 29.219c-.894.510-1.912.779-2.946.781-.108 0-.210-.021-.316-.027v1c.106.006.208.027.316.027 1.034-.002 2.052-.271 2.946-.781.896.510 1.911.779 2.947.781.622 0 1.217-.119 1.791-.299v-1c-.574.180-1.169.299-1.791.299-1.036-.002-2.051-.271-2.947-.781zm-5.809 9.062a2.6666 2.6666 0 0 1 -2.121 1.051 2.6666 2.6666 0 0 1 -.066 .574l.373.406a2.6666 2.6666 0 0 0 1.814 -1.031l2.547 2.842v-1l-2.547-2.842zm14.088 5.164l-3.541 3.375v1l3.541-3.375a2.6666 2.8572 0 0 0 1.127 .270 2.6666 2.8572 0 0 0 .033 0 2.6666 2.8572 0 0 1 .326 -1.004 2.6666 2.8572 0 0 1 -.015 -.023 2.6666 2.8572 0 0 1 -.344 .027 2.6666 2.8572 0 0 1 -1.127 -.270zm1.172 2.19a2.6666 2.8572 0 0 0 -.045 .510 2.6666 2.8572 0 0 0 .004 .123l.160-.155a2.6666 2.8572 0 0 1 -.119 -.478zm-12.713 7.906c-3.288 1.054-4 3.547-4 6.459h.035c.169-2.473 1.061-4.528 3.965-5.459v-1zm8 0v1c2.904.931 3.796 2.986 3.965 5.459h.035c0-2.912-.712-5.405-4-6.459z"/>
 <path style="opacity:.2" d="m23.639 40.312a2.6666 2.6666 0 0 1 -.30664 .01953 2.6666 2.6666 0 0 1 -.06641 .57422l4.734 5.176v-1zm17.373 4.375a2.6666 2.8572 0 0 1 -.31055 .02734 2.6666 2.8572 0 0 0 -.0332 .42969 2.6666 2.8572 0 0 0 .04492 .49024 2.6666 2.8572 0 0 1 .31445 -.92383 2.6666 2.8572 0 0 1 -.01563 -.02344zm-.340 1.581-4.672 4.513v1l4.832-4.668a2.6666 2.8572 0 0 1 -.160 -.845zm-16.637 13.732c-.022.327-.035.660-.035 1h16c0-.34009-.01276-.67294-.03516-1z"/>
</svg>
